icons/volume-mute-line.svg

<svg viewBox="0 0 24 24" fill="currentColor" xmlns="http://www.w3.org/2000/svg"><path d="M10 7.22049L6.60282 10H3V14H6.60282L10 16.7795V7.22049ZM5.88889 16H2C1.44772 16 1 15.5523 1 15V9.00001C1 8.44772 1.44772 8.00001 2 8.00001H5.88889L11.1834 3.66815C11.3971 3.49329 11.7121 3.52479 11.887 3.73851C11.9601 3.82784 12 3.93971 12 4.05513V19.9449C12 20.221 11.7761 20.4449 11.5 20.4449C11.3846 20.4449 11.2727 20.405 11.1834 20.3319L5.88889 16ZM20.4142 12L23.9497 15.5355L22.5355 16.9498L19 13.4142L15.4645 16.9498L14.0503 15.5355L17.5858 12L14.0503 8.46447L15.4645 7.05026L19 10.5858L22.5355 7.05026L23.9497 8.46447L20.4142 12Z"/></svg>

<svg xmlns="http://www.w3.org/2000/svg" viewBox="0 0 24 24">
    <g>
        <path fill="none" d="M0 0h24v24H0z"/>
        <path d="M10 7.22L6.603 10H3v4h3.603L10 16.78V7.22zM5.889 16H2a1 1 0 0 1-1-1V9a1 1 0 0 1 1-1h3.889l5.294-4.332a.5.5 0 0 1 .817.387v15.89a.5.5 0 0 1-.817.387L5.89 16zm14.525-4l3.536 3.536-1.414 1.414L19 13.414l-3.536 3.536-1.414-1.414L17.586 12 14.05 8.464l1.414-1.414L19 10.586l3.536-3.536 1.414 1.414L20.414 12z"/>
    </g>
</svg>
